source/images/icons/ok.svg

<svg id="ok" width="20" height="20" viewBox="0 0 20 20" fill="currentColor" xmlns="http://www.w3.org/2000/svg">
<path fill-rule="evenodd" clip-rule="evenodd" d="M1.4 1.4C3.33786e-06 2.812 3.35195e-06 5.074 3.35195e-06 9.6V10.4L1.66545e-06 10.5136C-9.77702e-05 14.97 -0.00014782 17.2117 1.4 18.6C2.812 20 5.074 20 9.6 20H10.4H10.5131C14.9698 20.0001 17.2117 20.0001 18.6 18.6C20 17.188 20 14.926 20 10.4V9.6V9.48685C20.0001 5.03015 20.0001 2.7883 18.6 1.4C17.188 3.33786e-06 14.926 3.35195e-06 10.4 3.35195e-06H9.6L9.48639 1.66545e-06C5.03 -9.77702e-05 2.78825 -0.00014782 1.4 1.4ZM10.0194 10.1972C11.6876 10.1972 13.0477 8.83717 13.0477 7.16889C13.0477 5.50061 11.6876 4.14061 10.0194 4.14061C8.33296 4.14061 6.97295 5.50061 6.97295 7.16889C6.97295 8.83717 8.33296 10.1972 10.0194 10.1972ZM10.0194 5.91768C10.7084 5.91768 11.2706 6.47982 11.2706 7.16889C11.2706 7.85796 10.7084 8.4201 10.0194 8.4201C9.3303 8.4201 8.76816 7.85796 8.76816 7.16889C8.75003 6.47982 9.31216 5.91768 10.0194 5.91768ZM11.2343 12.6815C11.8509 12.5364 12.4493 12.3007 12.9933 11.9561C13.4103 11.7023 13.5372 11.1401 13.2653 10.7231C13.0114 10.306 12.4493 10.1791 12.0322 10.4511C10.7991 11.2308 9.18524 11.2308 7.95216 10.4511C7.53509 10.1972 6.99109 10.306 6.71909 10.7231C6.48336 11.1401 6.61029 11.6841 7.02736 11.938C7.57137 12.2825 8.16977 12.5183 8.7863 12.6634L7.0999 14.3498C6.75536 14.6943 6.75536 15.2565 7.0999 15.601C7.28123 15.7823 7.49883 15.8548 7.73456 15.8548C7.9703 15.8548 8.1879 15.7641 8.36923 15.601L10.0375 13.9327L11.7058 15.601C12.0503 15.9455 12.6124 15.9455 12.957 15.601C13.3015 15.2565 13.3015 14.6943 12.957 14.3498L11.2343 12.6815Z"/>
</svg>

<svg viewBox="0 0 20 20" fill="currentColor" xmlns="http://www.w3.org/2000/svg"><path fill-rule="evenodd" clip-rule="evenodd" d="M1.4 1.4c-1.4 1.41-1.4 3.67-1.4 8.2v.91c0 4.46 0 6.7 1.4 8.09 1.41 1.4 3.67 1.4 8.2 1.4h.91c4.46 0 6.7 0 8.09-1.4 1.4-1.41 1.4-3.67 1.4-8.2v-.91c0-4.46 0-6.7-1.4-8.09-1.41-1.4-3.67-1.4-8.2-1.4h-.91c-4.46 0-6.7 0-8.09 1.4Zm8.62 8.8a3.03 3.03 0 1 0-.01-6.07 3.03 3.03 0 0 0 0 6.07Zm0-4.28a1.25 1.25 0 0 1 0 2.5c-.69 0-1.25-.56-1.25-1.25a1.23 1.23 0 0 1 1.25-1.25Zm1.21 6.76a5.73 5.73 0 0 0 1.76-.72.88.88 0 0 0 .28-1.24.88.88 0 0 0-1.24-.27 3.85 3.85 0 0 1-4.08 0 .9.9 0 0 0-1.23.27.9.9 0 0 0 .3 1.22 5.8 5.8 0 0 0 1.77.72l-1.69 1.69a.89.89 0 0 0 0 1.25c.18.18.4.25.63.25.24 0 .46-.09.64-.25l1.67-1.67 1.67 1.67a.89.89 0 0 0 1.25-1.25l-1.73-1.67Z"/></svg>
